icons/op-save-24.svg

<svg width="24" height="24" viewBox="0 0 24 24" fill="none" xmlns="http://www.w3.org/2000/svg">
<path d="M2 4.22222C2 3.63285 2.23413 3.06762 2.65087 2.65087C3.06762 2.23413 3.63285 2 4.22222 2H17.0956C17.6849 2.00013 18.25 2.23433 18.6667 2.65111L21.6744 5.65889C21.8828 5.86721 21.9999 6.14978 22 6.44444V19.7778C22 20.3671 21.7659 20.9324 21.3491 21.3491C20.9324 21.7659 20.3671 22 19.7778 22H4.22222C3.63285 22 3.06762 21.7659 2.65087 21.3491C2.23413 20.9324 2 20.3671 2 19.7778V4.22222ZM8 20.5H16V12.5H8V20.5ZM17.5556 20.5H20.5V6.90444L17.5556 4V6.44444C17.5556 7.03381 17.3214 7.59905 16.9047 8.01579C16.4879 8.43254 15.9227 8.66667 15.3333 8.66667H8.66667C8.0773 8.66667 7.51207 8.43254 7.09532 8.01579C6.67857 7.59905 6.44444 7.03381 6.44444 6.44444V3.5H3.5V20.5H6.44444V13.1111C6.44444 12.5217 6.67857 11.9565 7.09532 11.5398C7.51207 11.123 8.0773 10.8889 8.66667 10.8889H15.3333C15.9227 10.8889 16.4879 11.123 16.9047 11.5398C17.3214 11.9565 17.5556 12.5217 17.5556 13.1111V20.5ZM8 3.5V7H16V3.5H8Z" fill="#636C76"/>
</svg>

<svg xmlns="http://www.w3.org/2000/svg" width="24" height="24" viewBox="0 0 24 24"><path d="M2 4.222A2.222 2.222 0 0 1 4.222 2h12.874c.589 0 1.154.234 1.571.651l3.007 3.008c.209.208.326.491.326.785v13.334A2.222 2.222 0 0 1 19.778 22H4.222A2.222 2.222 0 0 1 2 19.778V4.222ZM8 20.5h8v-8H8v8Zm9.556 0H20.5V6.904L17.556 4v2.444a2.226 2.226 0 0 1-2.223 2.223H8.667a2.222 2.222 0 0 1-2.223-2.223V3.5H3.5v17h2.944v-7.389a2.226 2.226 0 0 1 2.223-2.222h6.666a2.222 2.222 0 0 1 2.223 2.222V20.5ZM8 3.5V7h8V3.5H8Z"/></svg>
